X:236
%%etbk:tnset id:74,pos:1,rep:3x,ant:
%%etbk:wsite http://www.thesession.org/tunes/display/948
%%etbk:pldat 2015-04-21T15:25,2015-03-26T18:12,2014-04-08T17:23,2014-03-27T17:59,2014-02-16T14:23,2014-02-05T16:06,2013-12-11T16:27,2013-10-07T18:52,2013-08-29T16:56,2013-08-27T18:13,2013-05-12T18:46
T: Kitty Lie Over
T: Frost is All Over, The
Z: Piano Box Version by Martin Fleischmann
H: Created 2013-02-19 /  Last Modified 2013-10-07
M: 6/8
L: 1/8
R: jig
K: Dmaj
A |:!4!A!2!F!1!D !1!D!2!F!1!A | !1!A!4!dd !2!B2 A | !1!ABA !2!F!2!F!2!F | !3!G!2!G!3!G !1!EFG |
!4!AFD !1!D !3!(3D!2!D!1!D | !4!ded !2!B2!1!A | !4!ABA !3!F2 E | !2!E!1!DD D2 :|
!4!e |:!3!f!1!dd ede | fdd d2 e | fdf def | ggg efg |
!5!a!3!f!1!d !2!B2A | !1!A2 !2!F !3!G2 G | !4!ABA !3!F2 E | !2!E!1!DD D2 :|


